X: 15
%%titlespace -10
%%musicspace -10
%%scale 0.6
T: Tŷ Coch Caerdydd
M: 4/4
L: 1/4
K: Gmaj
|:B/A/|"G" Gg g/f/e|d2 cB|"Am" ce e/d/c|"D" B/c/B/A/ "G" GB/A/|
"G" Gg g/f/e|d2 cB|"Am" BG "D" F/G/A/F/|"G" GB G:|
|:B/c/|"G" d/c/B/A/ G/A/B/c/|dd d/c/B/A/|"D" c/B/A/G/ F/G/A/B/|cc c/B/A/G/|
"G" d/c/B/A/ G/A/B/c/|dd d/c/B/A/|"Am" BG "D" F/G/A/F/|"G" GB G:|
|:B|"Am" A/B/c cc|"D" A/B/c cc|"G" B/c/d dd|B/c/d dd|
"Am" A/B/c cc|"D" A/B/c cc|"G" BG "D" F/G/A/F/|"G" GB G:|

